lib/healthicons/icons/outline/shapes/square_small.svg

<svg fill="none" height="48" viewBox="0 0 48 48" width="48" xmlns="http://www.w3.org/2000/svg"><path clip-rule="evenodd" d="m14 14v20h20v-20zm-1-2c-.5523 0-1 .4477-1 1v22c0 .5523.4477 1 1 1h22c.5523 0 1-.4477 1-1v-22c0-.5523-.4477-1-1-1z" fill="#333" fill-rule="evenodd"/></svg>

<svg width="48" height="48" viewBox="0 0 48 48" fill="none" xmlns="http://www.w3.org/2000/svg">
<path fill-rule="evenodd" clip-rule="evenodd" d="M14 14V34H34V14H14ZM13 12C12.4477 12 12 12.4477 12 13V35C12 35.5523 12.4477 36 13 36H35C35.5523 36 36 35.5523 36 35V13C36 12.4477 35.5523 12 35 12H13Z" fill="#333333"/>
</svg>
